X:056 
T:Empire State Reel* #2, The 
C:source: Mulvihill family, NY
F:file ID: cre.5/056emp_s2
B:CRE5.177ii (gan ainm)
N:This tune (nameless, in two settings) came from members of the Mulvihill
family from New York.
M:4/4
Q:180
R:reel
K:G
dGFG dGBd|eBdB AGED|dGFG dGBd|eBdB A2GB|
dGFG dGBd|eBdB AGED|dGFG dGBd|eBdB AcBA||
G2Bd gabg|e2dB AGED|G2Bd gabg|e2de g2gf|
gede gabg|e2dB AGED|G2Bd gfgf|e^def g4|]

%%%

